X:1
T:Close Thy Heart No More
T:Close Thy Heart No More
T:John Robson Sweney
T:Frances Jane (Fanny) Crosby, 1892
T:Public Domain Courtesy of the Cyber Hymnal™
C:John Robson Sweney
Z:Public Domain
Z:Courtesy of the Cyber Hymnal™
%%score 1 ( 2 3 )
L:1/8
Q:1/4=100
M:3/4
K:Ab
V:1 treble 
V:2 bass 
V:3 bass 
V:1
 [A,C]>[B,D] | [CE]3 [CE] [Ec]>[DB] | [CA]2 [A,C]2 [B,G]>[A,F] | [G,E]4 [B,D]2 | %4
w: 1.~Wea- ry|child, thy sin for-|sak- ing, Close thy|heart no|
w: 2.~To the|Sav- ior’s ten- der|plead- ing, Close thy|heart no|
w: 3.~To the|Gos- pel in- vi-|ta- tion Close thy|heart no|
w: 4.~To the|joy that fad- eth|nev- er Close thy|heart no|
 [A,C]4 [A,C]>[B,D] | [CE]3 [CE] [Ec]>[DB] | [CA]2 [A,C]2 [B,G]>[A,F] | [G,E]4 [DB]2 | [CA]4 || %9
w: more; From thy|dream of plea- sure|wak- ing, O- pen|wide the|door.|
w: more; Now the|call of mer- cy|heed- ing O- pen|wide the|door.|
w: more; To re-|ceive a full sal-|va- tion O- pen|wide the|door.|
w: more; To the|peace a- bid- ing|ev- er O- pen|wide the|door.|
"^Refrain" [Ec]>[Ed] | [Ee]3 [Ec] [Fd]>[Ec] | [Ec]2 [EB]2 [EB]>[Ec] | [Ed]3 [EB] [Ec]>[Ed] | %13
w: ||||
w: ||||
w: ||||
w: ||||
 [Ec]2 [CA]2 [CE]>[CE] | [DF]3 [FA] [EG]>[DF] | [CE]2 [CA]2 [EA]>[FB] | [Ec]4 [DB]2 | [CA]4 |] %18
w: |||||
w: |||||
w: |||||
w: |||||
V:2
 A,>B, | C3 C E>D | C2 A,2 B,>A, | G,4 B,2 | A,4 A,>B, | C3 C E>D | C2 A,2 B,>A, | G,4 D2 | C4 || %9
w: ~ ~|~ ~ ~ ~|~ ~ ~ ~|~ ~|~ ~ ~|~ ~ ~ ~|~ ~ ~ ~|~ ~|~|
 A,>[A,B,] | [A,C]3 [A,,A,] [A,,A,]>[A,,A,] | [E,A,]2 [E,G,]2 [E,G,]>[E,A,] | %12
w: While the|lamp of life is|burn- ing, And the|
 [E,B,]3 [E,G,] [E,A,]>[E,B,] | [A,,A,]2 [A,,E,]2 [A,,A,]>[A,,A,] | [D,A,]3 [D,A,] [D,A,]>[D,A,] | %15
w: heart of God is|yearn- ing, To His|lov- ing arms re-|
 [A,,A,]2 [A,,E,]2 [C,A,]>[D,A,] | [E,A,]4 [E,G,]2 | [A,,A,]4 |] %18
w: turn- ing, Give thy|wan- d’ring|o’er.|
V:3
 x2 | x6 | x6 | x6 | x6 | x6 | x6 | x6 | x4 || A,3/2 x/ | x6 | x6 | x6 | x6 | x6 | x6 | x6 | x4 |] %18

